X:1005
T:Father Tom's Wager
B:O'Neill's 1005
Z:Transcribed by Dan G. Petersen, dangp@post6.tele.dk
M:6/8
L:1/8
K:G
B/c/|dge dBG|AEF GDB,|G,B,D GBd|dcBc ABc|
dge dBG|AEF GDB,|G,B,D GAc|BEF G2:|
d/c/|Bdg bag|fed cAF|DGG FAA|GBB ABc|
Bdg bag|gfe dBG|cec dBG|AEF G2:|
